X: 2082
T: The Royal Recovery.   a Strathspey.
%R: strathspey
B: Niel Gow & Sons "Complete Repository" v.2 p.8 #2
Z: 2022 John Chambers <jc:trillian.mit.edu>
M: C
L: 1/8
Q: "SLOW"
K: A
% - - - - - - - - - -
V: 1 staves=2
[|\
TA,>B, TC>D TE>FEC | A,>CE>C EA-A>c | A,>B, C>D E>F (F/E/).D/.C/ | B,B/c/ (d/c/)B/A/ GB-B>c || TA,>B, TC>D TE>FEC |
TA,>C EC EA-A c/d/ | {cd}e>c AE (Fd) Tf>e | d>c {c}B>A GB-B |]| c | A<A {AB}c>A eAcA | E>A c>A (f/e/)d/c/ TB>c | (.A.A) cA eAcA |
(F3/G//A//) (F/E/).D/.C/ .B,BTB>c || A<A {AB}c>A eAcA | ~E>AcA (f/e/).d/.c/ B>c | !p!~A>cAE ~F>AFD | {F}E>D {D}C>B, A,A-Ac |]
% - - - - - - - - - -
% Voice 2 preserves the staff layout in the book.
V: 2 clef=bass middle=d
[|\
A2A2 A2A2 | A2A2 a2A2 | AG AB c2A2 | dc B>^d e2E2 || AG AB cdc2 |
A2A2 c2Az | a2c2 d3c | Bc d^d e2E |]| z | A2a2 A2a2 | c2A2 d2e2 | c2A2 a2A2 |
d2cA G2E2 || A2a2 A2a2 | c2A2 d2e2 | !p!c2c2 d2d2 | cd eE A2A2 |]


